X: 40148
T: Till The Tide Comes In
R: barndance
M: 4/4
K: Gmajor
BA|:GBd2d2cB|Ace2e2dc|BdgB Aedc|B2G2G2BA|
GBd2d2cB|Ace2e2dc|BdgB Aedc|1 B2G2G2BA:|2 B2G2G2(3def||
|:gfgf gdBd|e2d2d2ef|gfgf gdBd|c2A2A2BA|
GBd2d2cB|Ace2e2dc|BdgB Aedc|1 B2G2G2(3def:|2 B2G2G2||

